X: 1
T: From Aberdeen
O: Playford 1698
M: 4/4
L: 1/8
B: Playford 1698
B: Barnes v.1 p.42
K: G
G2 |\
"G"B2d2 d2e2 | d2cB "D7"A3d |\
"G"B2G2 B2d2 |1 g6 :|2 g2 G4 :|\
|: b2 |\
"G"g2b2 g2b2 | "C"a2gf e3f |
"G"g2fe d2B2 | "D7"d6 f2 |\
"G"g3f  edcB | "Am"ABcd e3g |\
"G"d2cB A2G2 | "C"c4 B4 |\
"D7"e2 fg fgag | "G"g6 :|
